X:1
T:Title
%%score 1 { ( 2 4 ) | ( 3 5 ) }
L:1/8
M:4/4
K:Db
V:1 treble nm="Akkordion"
V:2 bass nm="Grand Piano"
V:4 bass 
V:3 treble 
V:5 treble 
V:1
 z4 z2[Q:1/4=100] A2 | D2 FA c2 B2 | A4 E2 F2 | G2 FG B2 A2 |[M:3/4] F4 A2 |[M:1/4] A2 | %6
[M:4/4] D2 FA c2 B2 | A4 =G2 F2 | E2 =GB d2 G2 |[M:15/16] A3/2-A3/2- A3- A z/ |[M:1/4] z2 | %11
[M:4/4] z8 | z8 | z8 |[M:3/4] z6 |[M:1/4] z2 |[M:4/4] z8 |[M:9/8] z9 |[M:5/4] z10 |[M:3/4] z6 |] %20
V:2
 z4 z2 A,2 | z[K:treble] AF,A z =G z G | z A z A[K:bass] z A z A | z[K:treble] AF,A z A z A | %4
[M:3/4] z [FA] z [FA] z A |[M:1/4] z A |[M:4/4][K:bass] z AF,[K:treble]A z =G z G | %7
 z A z A z B z B | z B=G,B z B z B |[M:15/16] z A/-A/[K:bass] z A[K:treble]A/-A z/ z3/2 | %10
[M:1/4] A2 |[M:4/4] [Fd]2 [Fc][Fd] [FA]2 F2 | A6 z2 | G2 FG B2 A2 |[M:3/4] A6 |[M:1/4] A2 | %16
[M:4/4] [Fd]2 [Fc][Fd] c2 =A2 |[M:9/8] c2 B B d2- dcB |[M:5/4] A2 =GA A3 [_Ge]3 |[M:3/4] [Fd]6 |] %20
V:3
 z8 | z [DF] z [A,DF] z [D_F] z [DF] | z [CEG] z [CEG] z [CEG] z [CEG] | %3
 z [CE] z[K:bass] [G,CE] z [CE] z [CE] |[M:3/4] z D z C z[K:treble] [CG] |[M:1/4] z [CG] | %6
[M:4/4] z [DF] z [A,DF] z [D_F] z [DF] | z [CE] z [CE] z [DE] z [DE] | z [DE] z [B,DE] z E z [DE] | %9
[M:15/16] z [CE]/-[CE]/ z [CF][CEG]/-[CEG] z/ z3/2 |[M:1/4] [A,CG]2 | %11
[M:4/4][K:bass] [D,D]2 [D,A,][D,A,] [D,D]2 [=D,A,_C]2 | [E,A,C]2 [A,,A,]2 [D,A,]2 [D,A,D]2 | %13
 [E,A,C]2 [=D,A,_C][E,A,=C][K:treble] [A,CG]2 [A,CF]2 |[M:3/4][K:bass] [D,D]2 [=D,_C]2 [E,=C]2 | %15
[M:1/4] [A,CG]2 |[M:4/4] [D,A,]2 [D,A,][D,A,] [F,=A,E]2 [F,CE]2 | %17
[M:9/8] [G,B,E]2 [G,B,D] [G,B,D][K:treble] [=G,B,_F]2- [G,B,F][G,CF][G,DF] | %18
[M:5/4] [A,DF]2 [B,D_F][A,D=F] [A,CG]3[K:bass] [A,,A,]3 |[M:3/4] [D,A,]6 |] %20
V:4
 x8 | D,2[K:treble] z2 C2 B,2 | A,4[K:bass] E,2 F,2 | G,2[K:treble] z2 B,2 A,2 |[M:3/4] F,4 A,2 | %5
[M:1/4] A,2 |[M:4/4][K:bass] D,2 z2[K:treble] C2 B,2 | A,4 =G,2 F,2 | E,2 z2 D2 =G,2 | %9
[M:15/16] A,->A,[K:bass]A,,-A,,[K:treble] z/ z3 |[M:1/4] x2 |[M:4/4] x8 | z2 G2 F2 F2 | x8 | %14
[M:3/4] F2 F2 G2 |[M:1/4] x2 |[M:4/4] x8 |[M:9/8] x9 |[M:5/4] x10 |[M:3/4] x6 |] %20
V:5
 x8 | x8 | x8 | x3[K:bass] x5 |[M:3/4] D,2 =D,2 E,2[K:treble] |[M:1/4] x2 |[M:4/4] x8 | x8 | x8 | %9
[M:15/16] z3/2 z3/2 z A,-<A,-A, z/ |[M:1/4] x2 |[M:4/4][K:bass] x8 | x8 | x4[K:treble] x4 | %14
[M:3/4][K:bass] x6 |[M:1/4] x2 |[M:4/4] x8 |[M:9/8] x4[K:treble] x5 |[M:5/4] x7[K:bass] x3 | %19
[M:3/4] x6 |] %20

